src/assets/icons/days,fancy,tuesday.svg

<svg width="48" height="48" viewBox="0 0 48 48" fill="none" xmlns="http://www.w3.org/2000/svg">
<rect opacity="0.2" x="4" y="6" width="40" height="40" rx="4" fill="black"/>
<path d="M10.2624 24.5881H15.6062V39H19.2539V24.5881H24.5977V21.5455H10.2624V24.5881ZM33.5039 33.4261C33.5124 35.1818 32.3107 36.1023 31.0067 36.1023C29.6346 36.1023 28.7482 35.1392 28.7397 33.5966V25.9091H25.109V34.2443C25.1175 37.304 26.9073 39.1705 29.5408 39.1705C31.5096 39.1705 32.9244 38.1562 33.5124 36.6222H33.6488V39H37.1346V25.9091H33.5039V33.4261Z" fill="black"/>
<g opacity="0.4">
<path d="M10 4C10 2.89543 10.8954 2 12 2C13.1046 2 14 2.89543 14 4V8C14 9.10457 13.1046 10 12 10C10.8954 10 10 9.10457 10 8V4Z" fill="black"/>
<path d="M34 4C34 2.89543 34.8954 2 36 2C37.1046 2 38 2.89543 38 4V8C38 9.10457 37.1046 10 36 10C34.8954 10 34 9.10457 34 8V4Z" fill="black"/>
</g>
<path fill-rule="evenodd" clip-rule="evenodd" d="M10 6.00869C7.52043 6.04456 6.11466 6.22849 5.17157 7.17157C4 8.34315 4 10.2288 4 14V16H44V14C44 10.2288 44 8.34315 42.8284 7.17157C41.8853 6.22849 40.4796 6.04456 38 6.00869V8C38 9.10457 37.1046 10 36 10C34.8954 10 34 9.10457 34 8V6H14V8C14 9.10457 13.1046 10 12 10C10.8954 10 10 9.10457 10 8V6.00869Z" fill="black"/>
</svg>

<svg xmlns="http://www.w3.org/2000/svg" width="48" height="48" fill="none" viewBox="0 0 48 48">
  <rect width="40" height="40" x="4" y="6" fill="#000" opacity=".2" rx="4"/>
  <path fill="#000" d="M10.262 24.588h5.344V39h3.648V24.588h5.344v-3.043H10.262v3.043zm23.242 8.838c.008 1.756-1.193 2.676-2.497 2.676-1.372 0-2.259-.963-2.267-2.505v-7.688h-3.631v8.335c.008 3.06 1.798 4.926 4.432 4.926 1.969 0 3.383-1.014 3.971-2.548h.137V39h3.486V25.91h-3.631v7.516z"/>
  <g opacity=".4">
    <path fill="#000" d="M10 4a2 2 0 114 0v4a2 2 0 11-4 0V4zM34 4a2 2 0 114 0v4a2 2 0 11-4 0V4z"/>
  </g>
  <path fill="#000" fill-rule="evenodd" d="M10 6.009c-2.48.036-3.885.22-4.828 1.163C4 8.343 4 10.229 4 14v2h40v-2c0-3.771 0-5.657-1.172-6.828-.943-.944-2.348-1.127-4.828-1.163V8a2 2 0 11-4 0V6H14v2a2 2 0 11-4 0V6.009z" clip-rule="evenodd"/>
</svg>
